assets/images/IDEA.svg

<svg fill="none" height="94" viewBox="0 0 85 94" width="85" xmlns="http://www.w3.org/2000/svg"><g fill="#ff5107"><path d="m31.6796 62.9104h4.9417v4.9417h-4.9417z"/><path d="m48.0319 62.9104h4.9418v4.9417h-4.9418z"/><path d="m38.423 65.9131h7.8072v4.8045h-7.8072z"/><path clip-rule="evenodd" d="m17.8235 44.293h9.6089v-4.6543h29.5132v4.6543h9.609v9.609h4.9391v9.6089 29.6789h-4.9387-48.7311-4.9118v-29.829-9.4588h4.9114zm9.6651 14.5507v-4.9546h-4.9546v-4.9547h4.9546v4.9547l12.2985.0075v4.9546h4.9546v-4.9546l12.2039.0054v-4.9547h4.9546v4.9547h-4.9546v4.9546l4.9444-.0129v18.3428h-4.9444v4.9547l-29.5132-.0129v-4.9418h-4.9416v-18.3428z" fill-rule="evenodd"/><path clip-rule="evenodd" d="m36.6213 62.9104h-4.9417v4.9417h4.9417zm16.3524 0h-4.9418v4.9417h4.9418zm-6.7435 3.0027h-7.8072v4.8045h7.8072z" fill-rule="evenodd"/><path d="m31.8193 4.94437h4.9418v10.35963h-4.9418z"/><path d="m36.7611 0v4.94437h10.3596v-4.94437z"/><path d="m39.5556 30.6054h4.9418v-2.6794h-4.9418z"/><path d="m52.0651 4.94437h-4.9444v10.35963h4.9444z"/><path d="m39.4556 25.6637h4.9418v-5.4179h2.7233v-4.9418h-10.3596v4.9418h2.6945z"/><path d="m73.8682 88.2832v4.9443h10.3596v-4.9443z"/><path d="m.00000006 88.2832-.00000006 4.9443h10.3596v-4.9443z"/></g></svg>

<svg width="85" height="94" viewBox="0 0 85 94" fill="none" xmlns="http://www.w3.org/2000/svg">
<path d="M31.6796 62.9104H36.6213V67.8521H31.6796V62.9104Z" fill="#FF5107"/>
<path d="M48.0319 62.9104H52.9737V67.8521H48.0319V62.9104Z" fill="#FF5107"/>
<path d="M38.423 65.9131H46.2302V70.7176H38.423V65.9131Z" fill="#FF5107"/>
<path fill-rule="evenodd" clip-rule="evenodd" d="M17.8235 44.293H27.4324V39.6387H56.9456V44.293H66.5546V53.902H71.4937V63.5109V93.1898H66.555H17.8239H12.9121V63.3608V53.902H17.8235V44.293ZM27.4886 58.8437V53.8891H22.534V48.9344H27.4886V53.8891L39.7871 53.8966V58.8512H44.7417V53.8966L56.9456 53.902V48.9473H61.9002V53.902H56.9456V58.8566L61.89 58.8437V77.1865H56.9456V82.1412L27.4324 82.1283V77.1865H22.4908V58.8437H27.4886Z" fill="#FF5107"/>
<path fill-rule="evenodd" clip-rule="evenodd" d="M36.6213 62.9104H31.6796V67.8521H36.6213V62.9104ZM52.9737 62.9104H48.0319V67.8521H52.9737V62.9104ZM46.2302 65.9131H38.423V70.7176H46.2302V65.9131Z" fill="#FF5107"/>
<path d="M31.8193 4.94437H36.7611V15.304H31.8193V4.94437Z" fill="#FF5107"/>
<path d="M36.7611 0V4.94437H47.1207V0H36.7611Z" fill="#FF5107"/>
<path d="M39.5556 30.6054H44.4974V27.926H39.5556V30.6054Z" fill="#FF5107"/>
<path d="M52.0651 4.94437H47.1207V15.304H52.0651V4.94437Z" fill="#FF5107"/>
<path d="M39.4556 25.6637H44.3974V20.2458L47.1207 20.2458V15.304H36.7611V20.2458L39.4556 20.2458V25.6637Z" fill="#FF5107"/>
<path d="M73.8682 88.2832L73.8682 93.2275L84.2278 93.2275L84.2278 88.2832L73.8682 88.2832Z" fill="#FF5107"/>
<path d="M5.89611e-08 88.2832L0 93.2275L10.3596 93.2275L10.3596 88.2832L5.89611e-08 88.2832Z" fill="#FF5107"/>
</svg>
